;FLAVOR:Marlin
;TIME:4548
;Filament used: 2.27578m
;Layer height: 0.13125
;MINX:55.154
;MINY:30.425
;MINZ:0.263
;MAXX:74.846
;MAXY:109.575
;MAXZ:18.341
;Generated with Cura_SteamEngine 4.11.0
M140 S65
M105
M190 S65
M104 S205
M105
M109 S205
M82 ;absolute extrusion mode
G21;(metric values)
G90;(absolute positioning)
M82;(set extruder to absolute mode)
M107;(start with the fan off)
G28;(Home the printer)
G92 E0;(Reset the extruder to 0)
G0 Z5 E5 F500;(Move up and prime the nozzle)
G0 X-1 Z0;(Move outside the printable area)
G1 Y60 E8 F500;(Draw a priming/wiping line to the rear)
G1 X-1;(Move a little closer to the print area)
G1 Y10 E16 F500;(draw more priming/wiping)
G1 E15 F250;(Small retract)
G92 E0;(Zero the extruder)
G92 E0
G92 E0
G1 F2400 E-2.5
;LAYER_COUNT:139
;LAYER:0
M107
G0 F4320 X55.781 Y33.057 Z0.263
;TYPE:SKIRT
G1 F2400 E0
G1 F1800 X56.122 Y32.519 E0.02438
G1 X56.528 Y32.028 E0.04876
G1 X56.992 Y31.592 E0.07313
G1 X57.507 Y31.217 E0.09751
G1 X58.064 Y30.91 E0.12185
G1 X58.656 Y30.675 E0.14622
G1 X59.273 Y30.516 E0.17061
G1 X59.905 Y30.435 E0.19499
G1 X60.229 Y30.425 E0.2074
G1 X69.771 Y30.425 E0.57257
G1 X70.407 Y30.465 E0.59695
G1 X71.032 Y30.584 E0.6213
G1 X71.638 Y30.781 E0.64569
G1 X72.214 Y31.052 E0.67005
G1 X72.752 Y31.393 E0.69443
G1 X73.243 Y31.799 E0.71881
G1 X73.679 Y32.263 E0.74318
G1 X74.054 Y32.778 E0.76756
G1 X74.361 Y33.335 E0.7919
G1 X74.596 Y33.927 E0.81627
G1 X74.755 Y34.544 E0.84066
G1 X74.836 Y35.176 E0.86504
G1 X74.846 Y35.5 E0.87745
G1 X74.846 Y104.5 E3.51807
G1 X74.806 Y105.136 E3.54246
G1 X74.687 Y105.761 E3.56681
G1 X74.49 Y106.367 E3.59119
G1 X74.219 Y106.943 E3.61556
G1 X73.878 Y107.481 E3.63993
G1 X73.472 Y107.972 E3.66431
G1 X73.008 Y108.408 E3.68868
G1 X72.493 Y108.783 E3.71306
G1 X71.936 Y109.09 E3.7374
G1 X71.344 Y109.325 E3.76178
G1 X70.727 Y109.484 E3.78616
G1 X70.095 Y109.565 E3.81055
G1 X69.771 Y109.575 E3.82295
G1 X60.229 Y109.575 E4.18812
G1 X59.593 Y109.535 E4.21251
G1 X58.968 Y109.416 E4.23686
G1 X58.362 Y109.219 E4.26125
G1 X57.786 Y108.948 E4.28561
G1 X57.248 Y108.607 E4.30998
G1 X56.757 Y108.201 E4.33437
G1 X56.321 Y107.737 E4.35873
G1 X55.946 Y107.222 E4.38311
G1 X55.639 Y106.665 E4.40745
G1 X55.404 Y106.073 E4.43183
G1 X55.245 Y105.456 E4.45621
G1 X55.164 Y104.824 E4.4806
G1 X55.154 Y104.5 E4.493
G1 X55.154 Y35.5 E7.13363
G1 X55.194 Y34.864 E7.15802
G1 X55.313 Y34.239 E7.18236
G1 X55.493 Y33.688 E7.20455
G0 F1620 X55.51 Y33.633
G0 X55.781 Y33.057
G0 F4320 X56.13 Y33.15
G1 F1800 X56.47 Y32.638 E7.22807
G1 X56.873 Y32.174 E7.25159
G1 X57.333 Y31.767 E7.27509
G1 X57.842 Y31.422 E7.29863
G1 X58.391 Y31.147 E7.32212
G1 X58.972 Y30.945 E7.34567
G1 X59.573 Y30.821 E7.36915
G1 X60.229 Y30.775 E7.39432
G1 X69.771 Y30.775 E7.75949
G1 X70.384 Y30.815 E7.783
G1 X70.987 Y30.934 E7.80652
G1 X71.569 Y31.131 E7.83003
G1 X72.121 Y31.401 E7.85355
G1 X72.633 Y31.741 E7.87707
G1 X73.097 Y32.144 E7.90059
G1 X73.504 Y32.604 E7.9241
G1 X73.849 Y33.113 E7.94763
G1 X74.124 Y33.662 E7.97113
G1 X74.326 Y34.243 E7.99467
G1 X74.45 Y34.844 E8.01815
G1 X74.496 Y35.5 E8.04332
G1 X74.496 Y104.5 E10.68395
G1 X74.456 Y105.113 E10.70746
G1 X74.337 Y105.716 E10.73098
G1 X74.14 Y106.298 E10.75449
G1 X73.87 Y106.85 E10.77801
G1 X73.53 Y107.362 E10.80153
G1 X73.127 Y107.826 E10.82505
G1 X72.667 Y108.233 E10.84855
G1 X72.158 Y108.578 E10.87209
G1 X71.609 Y108.853 E10.89559
G1 X71.028 Y109.055 E10.91913
G1 X70.427 Y109.179 E10.94261
G1 X69.771 Y109.225 E10.96778
G1 X60.229 Y109.225 E11.33295
G1 X59.616 Y109.185 E11.35646
G1 X59.013 Y109.066 E11.37998
G1 X58.431 Y108.869 E11.4035
G1 X57.879 Y108.599 E11.42701
G1 X57.367 Y108.259 E11.45053
G1 X56.903 Y107.856 E11.47405
G1 X56.496 Y107.396 E11.49756
G1 X56.151 Y106.887 E11.52109
G1 X55.876 Y106.338 E11.54459
G1 X55.674 Y105.757 E11.56813
G1 X55.55 Y105.156 E11.59161
G1 X55.504 Y104.5 E11.61678
G1 X55.504 Y35.5 E14.25741
G1 X55.544 Y34.887 E14.28092
G1 X55.663 Y34.284 E14.30444
G1 X55.835 Y33.777 E14.32493
G0 F1620 X55.86 Y33.702
G0 X56.13 Y33.15
G0 F4320 X56.479 Y33.247
G1 F1800 X56.817 Y32.762 E14.34755
G1 X57.217 Y32.327 E14.37017
G1 X57.673 Y31.95 E14.39281
G1 X58.175 Y31.637 E14.41545
G1 X58.714 Y31.396 E14.43805
G1 X59.282 Y31.229 E14.4607
G1 X59.866 Y31.14 E14.48331
G1 X60.229 Y31.125 E14.49721
G1 X69.771 Y31.125 E14.86239
G1 X70.361 Y31.165 E14.88502
G1 X70.94 Y31.284 E14.90764
G1 X71.498 Y31.48 E14.93027
G1 X72.024 Y31.75 E14.9529
G1 X72.509 Y32.088 E14.97552
G1 X72.944 Y32.488 E14.99814
G1 X73.321 Y32.944 E15.02078
G1 X73.634 Y33.446 E15.04342
G1 X73.875 Y33.985 E15.06602
G1 X74.042 Y34.553 E15.08867
G1 X74.131 Y35.137 E15.11128
G1 X74.146 Y35.5 E15.12519
G1 X74.146 Y104.5 E17.76581
G1 X74.106 Y105.09 E17.78844
G1 X73.987 Y105.669 E17.81106
G1 X73.791 Y106.227 E17.8337
G1 X73.521 Y106.753 E17.85633
G1 X73.183 Y107.238 E17.87895
G1 X72.783 Y107.673 E17.90156
G1 X72.327 Y108.05 E17.92421
G1 X71.825 Y108.363 E17.94685
G1 X71.286 Y108.604 E17.96944
G1 X70.718 Y108.771 E17.9921
G1 X70.134 Y108.86 E18.01471
G1 X69.771 Y108.875 E18.02861
G1 X60.229 Y108.875 E18.39378
G1 X59.639 Y108.835 E18.41641
G1 X59.06 Y108.716 E18.43904
G1 X58.502 Y108.52 E18.46167
G1 X57.976 Y108.25 E18.4843
G1 X57.491 Y107.912 E18.50692
G1 X57.056 Y107.512 E18.52954
G1 X56.679 Y107.056 E18.55218
G1 X56.366 Y106.554 E18.57482
G1 X56.125 Y106.015 E18.59741
G1 X55.958 Y105.447 E18.62007
G1 X55.869 Y104.863 E18.64268
G1 X55.854 Y104.5 E18.65658
G1 X55.854 Y35.5 E21.29721
G1 X55.894 Y34.91 E21.31984
G1 X56.013 Y34.331 E21.34246
G1 X56.175 Y33.87 E21.36116
G0 F1620 X56.209 Y33.773
G0 X56.479 Y33.247
G0 F4320 X56.827 Y33.348
G1 F1800 X57.164 Y32.892 E21.38286
G1 X57.561 Y32.487 E21.40457
G1 X58.011 Y32.141 E21.42629
G1 X58.505 Y31.863 E21.44798
G1 X59.033 Y31.657 E21.46967
G1 X59.585 Y31.527 E21.49138
G1 X60.229 Y31.475 E21.5161
G1 X69.771 Y31.475 E21.88127
G1 X70.337 Y31.515 E21.90299
G1 X70.891 Y31.634 E21.92467
G1 X71.423 Y31.83 E21.94637
G1 X71.923 Y32.098 E21.96808
G1 X72.379 Y32.435 E21.98978
G1 X72.784 Y32.832 E22.01148
G1 X73.13 Y33.282 E22.03321
G1 X73.408 Y33.776 E22.0549
G1 X73.614 Y34.304 E22.07659
G1 X73.744 Y34.856 E22.09829
G1 X73.796 Y35.5 E22.12302
G1 X73.796 Y104.5 E24.76365
G1 X73.756 Y105.066 E24.78536
G1 X73.637 Y105.62 E24.80705
G1 X73.441 Y106.152 E24.82874
G1 X73.173 Y106.652 E24.85045
G1 X72.836 Y107.108 E24.87215
G1 X72.439 Y107.513 E24.89386
G1 X71.989 Y107.859 E24.91558
G1 X71.495 Y108.137 E24.93727
G1 X70.967 Y108.343 E24.95896
G1 X70.415 Y108.473 E24.98067
G1 X69.771 Y108.525 E25.00539
G1 X60.229 Y108.525 E25.37057
G1 X59.663 Y108.485 E25.39228
G1 X59.109 Y108.366 E25.41397
G1 X58.577 Y108.17 E25.43566
G1 X58.077 Y107.902 E25.45737
G1 X57.621 Y107.565 E25.47907
G1 X57.216 Y107.168 E25.50078
G1 X56.87 Y106.718 E25.5225
G1 X56.592 Y106.224 E25.54419
G1 X56.386 Y105.696 E25.56588
G1 X56.256 Y105.144 E25.58759
G1 X56.204 Y104.5 E25.61231
G1 X56.204 Y35.5 E28.25294
G1 X56.244 Y34.934 E28.27465
G1 X56.363 Y34.38 E28.29634
G1 X56.516 Y33.967 E28.31319
G0 F1620 X56.559 Y33.848
G0 X56.827 Y33.348
G0 F4320 X56.908 Y33.926
G1 F1800 X57.176 Y33.454 E28.33397
G1 X57.51 Y33.028 E28.35468
G1 X57.903 Y32.655 E28.37542
G1 X58.347 Y32.344 E28.39616
G1 X58.831 Y32.101 E28.41689
G1 X59.346 Y31.933 E28.43762
G1 X59.88 Y31.842 E28.45835
G1 X60.229 Y31.825 E28.47172
G1 X69.771 Y31.825 E28.8369
G1 X70.311 Y31.865 E28.85762
G1 X70.84 Y31.984 E28.87837
G1 X71.345 Y32.179 E28.89909
G1 X71.817 Y32.447 E28.91986
G1 X72.243 Y32.781 E28.94057
G1 X72.616 Y33.174 E28.96131
G1 X72.927 Y33.618 E28.98206
G1 X73.17 Y34.102 E29.00278
G1 X73.338 Y34.617 E29.02351
G1 X73.429 Y35.151 E29.04424
G1 X73.446 Y35.5 E29.05762
G1 X73.446 Y104.5 E31.69824
G1 X73.406 Y105.04 E31.71896
G1 X73.287 Y105.569 E31.73972
G1 X73.092 Y106.074 E31.76043
G1 X72.824 Y106.546 E31.7812
G1 X72.49 Y106.972 E31.80192
G1 X72.097 Y107.345 E31.82266
G1 X71.653 Y107.656 E31.8434
G1 X71.169 Y107.899 E31.86413
G1 X70.654 Y108.067 E31.88486
G1 X70.12 Y108.158 E31.90559
G1 X69.771 Y108.175 E31.91896
G1 X60.229 Y108.175 E32.28413
G1 X59.689 Y108.135 E32.30486
G1 X59.16 Y108.016 E32.32561
G1 X58.655 Y107.821 E32.34632
G1 X58.183 Y107.553 E32.3671
G1 X57.757 Y107.219 E32.38781
G1 X57.384 Y106.826 E32.40855
G1 X57.073 Y106.382 E32.42929
G1 X56.83 Y105.898 E32.45002
G1 X56.662 Y105.383 E32.47075
G1 X56.571 Y104.849 E32.49148
G1 X56.554 Y104.5 E32.50485
G1 X56.554 Y35.5 E35.14548
G1 X56.594 Y34.96 E35.1662
G1 X56.68 Y34.58 E35.18111
G0 F1620 X56.713 Y34.431
G0 X56.908 Y33.926
G0 F4320 X57.258 Y34.008
G1 F1800 X57.524 Y33.566 E35.20086
G1 X57.855 Y33.172 E35.22055
G1 X58.244 Y32.833 E35.2403
G1 X58.68 Y32.558 E35.26002
G1 X59.153 Y32.354 E35.27974
G1 X59.652 Y32.225 E35.29946
G1 X60.229 Y32.175 E35.32163
G1 X69.771 Y32.175 E35.6868
G1 X70.285 Y32.215 E35.70653
G1 X70.786 Y32.334 E35.72623
G1 X71.263 Y32.529 E35.74595
G1 X71.705 Y32.795 E35.7657
G1 X72.099 Y33.126 E35.78539
G1 X72.438 Y33.515 E35.80514
G1 X72.713 Y33.951 E35.82486
G1 X72.917 Y34.424 E35.84458
G1 X73.046 Y34.923 E35.8643
G1 X73.096 Y35.5 E35.88647
G1 X73.096 Y104.5 E38.52709
G1 X73.056 Y105.014 E38.54682
G1 X72.937 Y105.515 E38.56653
G1 X72.742 Y105.992 E38.58625
G1 X72.476 Y106.434 E38.60599
G1 X72.145 Y106.828 E38.62569
G1 X71.756 Y107.167 E38.64543
G1 X71.32 Y107.442 E38.66516
G1 X70.847 Y107.646 E38.68487
G1 X70.348 Y107.775 E38.7046
G1 X69.771 Y107.825 E38.72676
G1 X60.229 Y107.825 E39.09194
G1 X59.715 Y107.785 E39.11167
G1 X59.214 Y107.666 E39.13137
G1 X58.737 Y107.471 E39.15109
G1 X58.295 Y107.205 E39.17084
G1 X57.901 Y106.874 E39.19053
G1 X57.562 Y106.485 E39.21028
G1 X57.287 Y106.049 E39.23
G1 X57.083 Y105.576 E39.24972
G1 X56.954 Y105.077 E39.26944
G1 X56.904 Y104.5 E39.29161
G1 X56.904 Y35.5 E41.93223
G1 X56.944 Y34.986 E41.95196
G1 X57.022 Y34.659 E41.96483
G0 F1620 X57.063 Y34.485
G0 X57.258 Y34.008
G0 F4320 X57.607 Y34.094
G1 F1800 X57.872 Y33.685 E41.98348
G1 X58.2 Y33.325 E42.00212
G1 X58.582 Y33.022 E42.02078
G1 X59.009 Y32.787 E42.03943
G1 X59.468 Y32.624 E42.05807
G1 X60.229 Y32.525 E42.08744
G1 X69.771 Y32.525 E42.45261
G1 X70.257 Y32.565 E42.47127
G1 X70.73 Y32.684 E42.48994
G1 X71.177 Y32.878 E42.50859
G1 X71.586 Y33.143 E42.52724
G1 X71.946 Y33.471 E42.54587
G1 X72.249 Y33.853 E42.56453
G1 X72.484 Y34.28 E42.58319
G1 X72.647 Y34.739 E42.60183
G1 X72.746 Y35.5 E42.6312
G1 X72.746 Y104.5 E45.27182
G1 X72.706 Y104.986 E45.29048
G1 X72.587 Y105.459 E45.30915
G1 X72.393 Y105.906 E45.3278
G1 X72.128 Y106.315 E45.34645
G1 X71.8 Y106.675 E45.36509
G1 X71.418 Y106.978 E45.38375
G1 X70.991 Y107.213 E45.4024
G1 X70.532 Y107.376 E45.42104
G1 X69.771 Y107.475 E45.45041
G1 X60.229 Y107.475 E45.81558
G1 X59.743 Y107.435 E45.83424
G1 X59.27 Y107.316 E45.85291
G1 X58.823 Y107.122 E45.87156
G1 X58.414 Y106.857 E45.89021
G1 X58.054 Y106.529 E45.90885
G1 X57.751 Y106.147 E45.9275
G1 X57.516 Y105.72 E45.94616
G1 X57.353 Y105.261 E45.9648
G1 X57.254 Y104.5 E45.99417
G1 X57.254 Y35.5 E48.63479
G1 X57.294 Y35.014 E48.65345
G1 X57.363 Y34.742 E48.66419
G0 F1620 X57.413 Y34.541
G0 X57.607 Y34.094
G0 F4320 X57.956 Y34.187
G1 F1800 X58.219 Y33.812 E48.68172
G1 X58.543 Y33.488 E48.69926
G1 X58.918 Y33.226 E48.71677
G1 X59.333 Y33.033 E48.73428
G1 X59.775 Y32.915 E48.75179
G1 X60.229 Y32.875 E48.76923
G1 X69.771 Y32.875 E49.1344
G1 X70.227 Y32.915 E49.15192
G1 X70.669 Y33.033 E49.16943
G1 X71.084 Y33.227 E49.18696
G1 X71.459 Y33.49 E49.20449
G1 X71.783 Y33.814 E49.22202
G1 X72.045 Y34.189 E49.23953
G1 X72.238 Y34.604 E49.25705
G1 X72.356 Y35.046 E49.27455
G1 X72.396 Y35.5 E49.292
G1 X72.396 Y104.5 E51.93262
G1 X72.356 Y104.956 E51.95014
G1 X72.238 Y105.398 E51.96765
G1 X72.044 Y105.813 E51.98518
G1 X71.781 Y106.188 E52.00271
G1 X71.457 Y106.512 E52.02024
G1 X71.082 Y106.774 E52.03775
G1 X70.667 Y106.967 E52.05527
G1 X70.225 Y107.085 E52.07277
G1 X69.771 Y107.125 E52.09022
G1 X60.229 Y107.125 E52.45539
G1 X59.773 Y107.085 E52.47291
G1 X59.331 Y106.967 E52.49041
G1 X58.916 Y106.773 E52.50795
G1 X58.541 Y106.51 E52.52547
G1 X58.217 Y106.186 E52.54301
G1 X57.955 Y105.811 E52.56052
G1 X57.762 Y105.396 E52.57803
G1 X57.644 Y104.954 E52.59554
G1 X57.604 Y104.5 E52.61298
G1 X57.604 Y35.5 E55.25361
G1 X57.644 Y35.044 E55.27113
G1 X57.702 Y34.83 E55.27961
G0 F1620 X57.762 Y34.602
G0 X57.956 Y34.187
G0 F4320 X58.305 Y34.286
G1 F1800 X58.565 Y33.949 E55.2959
G1 X58.883 Y33.666 E55.31219
G1 X59.249 Y33.447 E55.32851
G1 X59.649 Y33.3 E55.34482
G1 X60.229 Y33.225 E55.3672
G1 X69.771 Y33.225 E55.73238
G1 X70.195 Y33.265 E55.74868
G1 X70.605 Y33.383 E55.765
G1 X70.985 Y33.576 E55.78131
G1 X71.322 Y33.836 E55.7976
G1 X71.605 Y34.154 E55.81389
G1 X71.824 Y34.52 E55.83022
G1 X71.971 Y34.92 E55.84653
G1 X72.046 Y35.5 E55.86891
G1 X72.046 Y104.5 E58.50953
G1 X72.006 Y104.924 E58.52583
G1 X71.888 Y105.334 E58.54216
G1 X71.695 Y105.714 E58.55847
G1 X71.435 Y106.051 E58.57476
G1 X71.117 Y106.334 E58.59105
G1 X70.751 Y106.553 E58.60737
G1 X70.351 Y106.7 E58.62368
G1 X69.771 Y106.775 E58.64606
G1 X60.229 Y106.775 E59.01124
G1 X59.805 Y106.735 E59.02753
G1 X59.395 Y106.617 E59.04386
G1 X59.015 Y106.424 E59.06017
G1 X58.678 Y106.164 E59.07646
G1 X58.395 Y105.846 E59.09275
G1 X58.176 Y105.48 E59.10908
G1 X58.029 Y105.08 E59.12538
G1 X57.954 Y104.5 E59.14777
G1 X57.954 Y35.5 E61.78839
G1 X57.994 Y35.076 E61.80469
G1 X58.038 Y34.923 E61.81078
G0 F1620 X58.112 Y34.666
G0 X58.305 Y34.286
G0 F4320 X58.462 Y34.736
G1 F1800 X58.653 Y34.394 E61.82577
G1 X58.91 Y34.098 E61.84078
G1 X59.221 Y33.86 E61.85576
G1 X59.574 Y33.69 E61.87076
G1 X59.954 Y33.595 E61.88575
G1 X60.229 Y33.575 E61.8963
G1 X69.771 Y33.575 E62.26147
G1 X70.161 Y33.615 E62.27647
G1 X70.535 Y33.733 E62.29148
G1 X70.877 Y33.924 E62.30647
G1 X71.173 Y34.181 E62.32148
G1 X71.411 Y34.492 E62.33646
G1 X71.581 Y34.845 E62.35146
G1 X71.676 Y35.225 E62.36645
G1 X71.696 Y35.5 E62.377
G1 X71.696 Y104.5 E65.01763
G1 X71.656 Y104.89 E65.03263
G1 X71.538 Y105.264 E65.04764
G1 X71.347 Y105.606 E65.06263
G1 X71.09 Y105.902 E65.07763
G1 X70.779 Y106.14 E65.09262
G1 X70.426 Y106.31 E65.10761
G1 X70.046 Y106.405 E65.1226
G1 X69.771 Y106.425 E65.13315
G1 X60.229 Y106.425 E65.49833
G1 X59.839 Y106.385 E65.51333
G1 X59.465 Y106.267 E65.52834
G1 X59.123 Y106.076 E65.54333
G1 X58.827 Y105.819 E65.55833
G1 X58.589 Y105.508 E65.57332
G1 X58.419 Y105.155 E65.58831
G1 X58.324 Y104.775 E65.6033
G1 X58.304 Y104.5 E65.61386
G1 X58.304 Y35.5 E68.25448
G1 X58.314 Y35.41 E68.25795
G0 F1620 X58.344 Y35.11
G0 X58.462 Y34.736
G0 F4320 X58.811 Y34.814
G1 F1800 X59.001 Y34.514 E68.27154
G1 X59.252 Y34.264 E68.28509
G1 X59.553 Y34.077 E68.29866
G1 X59.889 Y33.962 E68.31225
G1 X60.229 Y33.925 E68.32533
G1 X69.771 Y33.925 E68.69051
G1 X70.123 Y33.965 E68.70406
G1 X70.457 Y34.082 E68.71761
G1 X70.757 Y34.272 E68.7312
G1 X71.007 Y34.523 E68.74476
G1 X71.194 Y34.824 E68.75832
G1 X71.309 Y35.16 E68.77191
G1 X71.346 Y35.5 E68.785
G1 X71.346 Y104.5 E71.42562
G1 X71.306 Y104.852 E71.43918
G1 X71.189 Y105.186 E71.45272
G1 X70.999 Y105.486 E71.46631
G1 X70.748 Y105.736 E71.47987
G1 X70.447 Y105.923 E71.49343
G1 X70.111 Y106.038 E71.50702
G1 X69.771 Y106.075 E71.52011
G1 X60.229 Y106.075 E71.88528
G1 X59.877 Y106.035 E71.89884
G1 X59.543 Y105.918 E71.91239
G1 X59.243 Y105.728 E71.92598
G1 X58.993 Y105.477 E71.93953
G1 X58.806 Y105.176 E71.95309
G1 X58.691 Y104.84 E71.96669
G1 X58.654 Y104.5 E71.97977
G1 X58.654 Y35.5 E74.6204
G1 X58.656 Y35.487 E74.6209
G0 F1620 X58.694 Y35.148
G0 X58.811 Y34.814
G0 F4320 X59.161 Y34.9
G1 F1800 X59.347 Y34.65 E74.63283
G1 X59.591 Y34.454 E74.64481
G1 X59.876 Y34.327 E74.65675
G1 X60.229 Y34.275 E74.6704
G1 X69.771 Y34.275 E75.03557
G1 X70.081 Y34.315 E75.04754
G1 X70.371 Y34.432 E75.0595
G1 X70.621 Y34.618 E75.07143
G1 X70.817 Y34.862 E75.08341
G1 X70.944 Y35.147 E75.09535
G1 X70.996 Y35.5 E75.109
G1 X70.996 Y104.5 E77.74963
G1 X70.956 Y104.81 E77.76159
G1 X70.839 Y105.1 E77.77356
G1 X70.653 Y105.35 E77.78548
G1 X70.409 Y105.546 E77.79746
G1 X70.124 Y105.673 E77.8094
G1 X69.771 Y105.725 E77.82306
G1 X60.229 Y105.725 E78.18823
G1 X59.919 Y105.685 E78.20019
G1 X59.629 Y105.568 E78.21216
G1 X59.379 Y105.382 E78.22408
G1 X59.183 Y105.138 E78.23606
